icon-themes/sifr_svg/cmd/lc_columnwidth.svg

<svg viewBox="0 0 24 24" xmlns="http://www.w3.org/2000/svg"><path d="m8 1v14h2v-2h4v2h2v-14zm2 2h4v3h-4zm0 5h4v3h-4zm-2 9v6h2v-2h4v2h2v-6h-2v2h-4v-2z" fill="#555753"/></svg>

<svg xmlns="http://www.w3.org/2000/svg" viewBox="0 0 24 24">
  <path
     style="fill:#555753"
     d="M 8 1 L 8 15 L 10 15 L 10 13 L 14 13 L 14 15 L 16 15 L 16 1 L 8 1 z M 10 3 L 14 3 L 14 6 L 10 6 L 10 3 z M 10 8 L 14 8 L 14 11 L 10 11 L 10 8 z M 8 17 L 8 23 L 10 23 L 10 21 L 14 21 L 14 23 L 16 23 L 16 17 L 14 17 L 14 19 L 10 19 L 10 17 L 8 17 z "
     />
</svg>
